X: 417
T: Mazurka No. 2	 Op. 67
C: Fryderyk Chopin
%%abc-version 2.0
%%abcx-abcm2ps-target-version 5.9.1 (29 Sep 2008)
%%abc-creator hum2abc beta
%%abcx-conversion-date 2021/10/03 11:23:46
%%abc-edited-by Emilia Ziętek
%%abc-edited-by Jędrzej Mróz
%%abcx-initial-encoding-date 2019-12-17
%%humdrum-veritas 3472432792
%%humdrum-veritas-data 1101539152
%%linebreak <none>
%%barnumbers 0
L: 1/4
M: 3/4
N: Derived from 067-1-Sam-002.krn
P: ŒUVRES POSTHUMES | POUR LE | PIANO | DE | FRÉD. CHOPIN
Q: "M. M. [quarter] = 144."
%%staves {1 2}
V: 1 clef=treble
V: 2 clef=bass
K: Bb
[V:1] D [I:setbarnb 1]| 
[V:2] z | 
[V:1] d/{/f}e/dA | 
[V:2] D,,[DC^F,][DCF,] | 
[V:1] B>Gd/e/ | 
[V:2] G,,[DB,G,][EB,G,] | 
[V:1] f/{/a}g/fc | 
[V:2] A,,[ECF,][EA,F,] | 
[V:1] dzd/d/ | 
[V:2] B,,[DB,F,][DB,F,] | 
[V:1] d/{/f}e/dA | 
[V:2] z[C^F,D,][CF,D,] | 
[V:1] {/c} B/A/G[cE-] | 
[V:2] G,,[B,D,][G,C,]- | 
[V:1] G/A/Bc & EDE- | 
[V:2] [G,C,][G,G,,][G,C,]- | 
[V:1] G/A/Bc & EDE | 
[V:2] [G,C,][G,G,,][G,C,] | 
[V:1] d/e/dA & Dxx | 
[V:2] ^F,,[DD,][DD,] | 
[V:1] B>Gd/e/ | 
[V:2] G,,[DB,G,][EB,G,] | 
[V:1] f/{/a}g/fc | 
[V:2] A,,[ECF,][EA,F,] | 
[V:1] dzd/d/ | 
[V:2] B,,[DB,F,][DB,F,] | 
[V:1] d/{/f}e/dA | 
[V:2] z[C^F,D,][CF,D,] | 
[V:1] BG/b/a/g/ | 
[V:2] G,,[DB,G,][EG,C,] | 
[V:1] g/f/e/{/f}e/d/c/ | 
[V:2] z[CG,][C^F,] & D,3 | 
[V:1] B/A/G2 | 
[V:2] G,,[B,D,][B,D,] | 
[V:1] {/c}G3 | 
[V:2] F,,[EB,F,][EB,F,] | 
[V:1] (3A/G/F/Bd | 
[V:2] EDB,, & (3C/B,/A,/B,x | 
[V:1] {/c}G3 | 
[V:2] F,,[EB,F,][EB,F,] | 
[V:1] (3A/G/F/Bd/e/ | 
[V:2] EDB,,[K:clef=treble] & (3C/B,/A,/B,x | 
[V:1] (3f/g/f/=ec/d/ & =B_BB | 
[V:2] [GDG,][GC][GC][K:clef=bass] | 
[V:1] (3_e/f/e/dB & =A_AA | 
[V:2] [CF,][FB,][FB,] | 
[V:1] (3_d/e/d/c_A/B/ & G_GG | 
[V:2] [B,E,][E_A,][EA,] | 
[V:1] (3_c/_d/c/B_G & F_FF | 
[V:2] [A,_D,][_D_G,][DG,] | 
[V:1] {/[c=E]}G3 | 
[V:2] C,[=EB,][EB,] | 
[V:1] (3A/G/F/Bd | 
[V:2] _EDB,, & (3C/B,/A,/B,x | 
[V:1] {/[c=E]}G3 | 
[V:2] C,[=EB,][EB,] | 
[V:1] (3A/G/F/Bd/e/ | 
[V:2] EDB,,[K:clef=treble] & (3C/B,/A,/B,x | 
[V:1] (3f/g/f/=ec/d/ & =B_BB | 
[V:2] [GDG,][GC][GC][K:clef=bass] | 
[V:1] (3_e/f/e/dB/c/ & =A_AA | 
[V:2] [CF,][FB,][FB,] | 
[V:1] (3_d/e/d/c=d/c/ & GGF | 
[V:2] [=EB,=E,][_EB,F,][EA,F,] | 
[V:1] B.b.b' :|]  
[V:2] [DB,].B,,.B,,, :|]  
[V:1] D/E/DA | 
[V:2] z3 | 
[V:1] G^F3/E/ | 
[V:2] z3 | 
[V:1] D/E/DA | 
[V:2] z3 | 
[V:1] (3G/A/G/^FE | 
[V:2] z3 | 
[V:1] D/E/Dc | 
[V:2] z3 | 
[V:1] =B/_B/A_A/G/ | 
[V:2] z3 | 
[V:1] ^F/^c<de/ | 
[V:2] z3 | 
[V:1] d/e/d/e/d/e/ ||  
[V:2] z3 ||  
[V:1] d/{/f}e/dA | 
[V:2] D,,[DC^F,][DCF,] | 
[V:1] B>Gd/e/ | 
[V:2] G,,[DB,G,][EB,G,] | 
[V:1] f/{/a}g/fc | 
[V:2] A,,[ECF,][EA,F,] | 
[V:1] dzd/d/ | 
[V:2] B,,[DB,F,][DB,F,] | 
[V:1] d/{/f}e/dA | 
[V:2] z[C^F,D,][CF,D,] | 
[V:1] {/c} B/A/G[cE-] | 
[V:2] G,,[B,D,][G,C,]- | 
[V:1] G/A/Bc & EDE- | 
[V:2] [G,C,][G,G,,][G,C,]- | 
[V:1] G/A/Bc & EDE | 
[V:2] [G,C,][G,G,,][G,C,] | 
[V:1] d/e/dA & Dxx | 
[V:2] ^F,,[DD,][DD,] | 
[V:1] B>Gd/e/ | 
[V:2] G,,[DB,G,][EB,G,] | 
[V:1] f/{/a}g/fc | 
[V:2] A,,[ECF,][EA,F,] | 
[V:1] dzd/d/ | 
[V:2] B,,[DB,F,][DB,F,] | 
[V:1] d/{/f}e/dA | 
[V:2] z[C^F,D,][CF,D,] | 
[V:1] BG/b/a/g/ | 
[V:2] G,,[DB,G,][EG,C,] | 
[V:1] g/f/e/{/f}e/d/c/ | 
[V:2] z[CG,][C^F,] & D,3 | 
[V:1] B/A/G2 |]  
[V:2] z[B,2D,2] & G,,3 |]
